app/img/setvice_icon.svg

<svg width="52" height="52" viewBox="0 0 52 52" fill="none" xmlns="http://www.w3.org/2000/svg">
<path d="M33.8679 13.9865C33.8905 12.7178 33.8679 9.80377 33.8679 9.80377H31.58V12.2133H29.454V9.80377H27.1699V12.2095H24.8896V9.79624H22.5979V12.1982H20.3778V9.79624H18.12C18.12 9.79624 18.12 12.7215 18.12 14.0844C18.1364 14.2409 18.2102 14.3857 18.327 14.491C18.756 14.8863 19.1925 15.2741 19.6516 15.6393C19.8072 15.8256 19.9053 16.0532 19.9338 16.2944V19.1782L13.375 12.6161L25.9883 0.00012207L38.6017 12.6161L32.0429 19.1782V16.2605C32.0637 16.0443 32.1519 15.8402 32.295 15.6769C32.7466 15.3004 33.1944 14.924 33.612 14.5286C33.7594 14.3844 33.8502 14.192 33.8679 13.9865Z" fill="#191041"/>
<path d="M49.3346 29.5014L51.7204 25.7366L42.4109 16.4186L42.4297 13.2185C41.5793 13.5235 39.4532 14.284 37.8238 15.7748L26.8398 26.7719V51.9964L45.3911 33.4583C44.9809 29.8365 36.0252 27.0242 38.2867 22.0395C37.8502 27.1936 43.901 27.8901 47.1672 27.1635C46.8551 27.4376 46.51 27.6716 46.1399 27.86C47.1409 28.4209 48.3375 28.9028 49.3346 29.5014ZM30.6291 37.4641C30.6291 37.4641 28.4015 24.5959 38.9941 18.4328C38.7909 18.6587 32.2058 26.0416 30.6291 37.4641ZM41.6696 19.2423C43.2914 19.2423 44.2509 20.0555 44.4353 21.215C41.9555 20.7294 42.7646 20.1119 41.6696 19.2423Z" fill="#191041"/>
<path d="M42.7969 16.2228L42.8232 14.9503L44.0732 14.2839L43.6778 17.1076L42.7969 16.2228Z" fill="#191041"/>
<path d="M2.67071 29.5015L0.28125 25.7366L9.5945 16.4224L9.57569 13.2223C10.4223 13.5272 12.5484 14.2877 14.1815 15.7786L25.1655 26.7757V52.0002L6.61426 33.4583C7.02442 29.8365 15.9764 27.0242 13.7149 22.0395C14.1514 27.1936 8.10062 27.8901 4.83816 27.1635C5.14965 27.4384 5.49485 27.6724 5.86544 27.86C4.8645 28.421 3.66788 28.9029 2.67071 29.5015ZM21.3762 37.4641C21.3762 37.4641 23.6001 24.5959 13.0075 18.4328C13.2144 18.6587 19.7996 26.0416 21.3762 37.4641ZM10.3358 19.2423C8.71398 19.2423 7.75443 20.0555 7.57004 21.215C10.0498 20.7294 9.23703 20.112 10.3358 19.2423Z" fill="#191041"/>
<path d="M9.21378 16.2228L9.18743 14.9503L7.9375 14.2839L8.33281 17.1076L9.21378 16.2228Z" fill="#191041"/>
</svg>

<svg width="52" height="52" fill="none" xmlns="http://www.w3.org/2000/svg"><path d="M33.868 13.986c.023-1.268 0-4.182 0-4.182H31.58v2.41h-2.126v-2.41H27.17v2.405h-2.28V9.796h-2.292v2.402h-2.22V9.796H18.12v4.288c.016.157.09.302.207.407.429.395.865.783 1.325 1.148.155.187.253.414.282.655v2.884l-6.559-6.562L25.988 0l12.614 12.616-6.56 6.562V16.26c.022-.216.11-.42.253-.583.452-.377.9-.753 1.317-1.148a.862.862 0 00.256-.543zM49.335 29.501l2.385-3.764-9.31-9.318.02-3.2c-.85.305-2.977 1.065-4.606 2.556L26.84 26.772v25.224L45.39 33.458c-.41-3.621-9.366-6.434-7.104-11.418-.437 5.154 5.614 5.85 8.88 5.123a4.981 4.981 0 01-1.027.697c1 .56 2.197 1.043 3.195 1.641zm-18.706 7.963s-2.228-12.868 8.365-19.031c-.203.226-6.788 7.609-8.365 19.031zm11.04-18.222c1.622 0 2.582.813 2.766 1.973-2.48-.486-1.67-1.103-2.765-1.973z" fill="#191041"/><path d="M42.797 16.223l.026-1.273 1.25-.666-.395 2.824-.881-.885zM2.67 29.502L.282 25.736l9.313-9.315-.018-3.2c.846.305 2.972 1.066 4.605 2.557l10.985 10.997V52L6.614 33.458c.41-3.621 9.362-6.434 7.1-11.418.437 5.154-5.613 5.85-8.876 5.123a4.89 4.89 0 001.027.697c-1 .561-2.197 1.043-3.194 1.642zm18.706 7.962s2.224-12.868-8.369-19.031c.207.226 6.793 7.609 8.37 19.031zm-11.04-18.222c-1.622 0-2.582.813-2.766 1.973 2.48-.486 1.667-1.103 2.766-1.973z" fill="#191041"/><path d="M9.214 16.223l-.027-1.273-1.25-.666.396 2.824.88-.885z" fill="#191041"/></svg>
